X: 20063
M: 3/4
L: 1/8
K: Dm
[|\
(d2 ^cd) e2 | A6 |\
(f>g) a2 ^g2 | a6 |\
a2 g2 f2 | c4 f2 |
(g2 f2) e2 | f6 |\
a2 g2 f2 | (g2 f2) e2 |\
(f2 e2) d2 | ^c2 d2 e2 |\
(c2 =B2) A2 | A2 d2 e2 |\
(f2 e2) a2 | A4 d2 |\
e2 d2 ^c2 | d6 |]


